images/icons/strava.svg

<svg fill="none" height="24" viewBox="0 0 24 24" width="24" xmlns="http://www.w3.org/2000/svg"><path d="m10.4255 0-7.09652 13.687h4.18369l2.91283-5.44333 2.8904 5.44333h4.1499zm7.0403 13.687-2.0581 4.1274-2.0918-4.1274h-3.1716l5.2634 10.3018 5.2184-10.3018z" fill="#fff"/></svg>

<svg width="24" height="24" viewBox="0 0 24 24" fill="none" xmlns="http://www.w3.org/2000/svg">
<path d="M10.4255 0L3.32898 13.687H7.51267L10.4255 8.24367L13.3159 13.687H17.4658L10.4255 0ZM17.4658 13.687L15.4077 17.8144L13.3159 13.687H10.1443L15.4077 23.9888L20.6261 13.687H17.4658Z" fill="white"/>
</svg>
